local/share/icons/dracula-icons-main/24/actions/add-files-to-archive.svg

<svg height="24" viewBox="0 0 24 24" width="24" xmlns="http://www.w3.org/2000/svg"><style type="text/css" id="current-color-scheme">.ColorScheme-Text{color:#FFFFFF;}</style><g style="fill:currentColor;fill-opacity:1;stroke:none" class="ColorScheme-Text" transform="translate(1 1)"><path d="m4 4v16h11v-1h-10v-14h7v1h1v-1h6v10h1v-11zm8 2h-1v1h1zm0 1v1h1v-1zm0 1h-1v1h1zm0 1v1h1v-1zm0 1h-1v1 1h2v-1h-1z" transform="translate(-1 -1)"/><path d="m16 14v2h-2v1h2v2h1v-2h2v-1h-2v-2z"/></g></svg>

<?xml version="1.0" encoding="UTF-8"?>
<svg xmlns="http://www.w3.org/2000/svg" xmlns:xlink="http://www.w3.org/1999/xlink" width="24" height="24" viewBox="0 0 24 24">
<path fill-rule="nonzero" fill="rgb(100%, 100%, 100%)" fill-opacity="1" d="M 4 4 L 4 20 L 15 20 L 15 19 L 5 19 L 5 5 L 12 5 L 12 6 L 13 6 L 13 5 L 19 5 L 19 15 L 20 15 L 20 4 Z M 12 6 L 11 6 L 11 7 L 12 7 Z M 12 7 L 12 8 L 13 8 L 13 7 Z M 12 8 L 11 8 L 11 9 L 12 9 Z M 12 9 L 12 10 L 13 10 L 13 9 Z M 12 10 L 11 10 L 11 12 L 13 12 L 13 11 L 12 11 Z M 12 10 "/>
<path fill-rule="nonzero" fill="rgb(100%, 100%, 100%)" fill-opacity="1" d="M 17 15 L 17 17 L 15 17 L 15 18 L 17 18 L 17 20 L 18 20 L 18 18 L 20 18 L 20 17 L 18 17 L 18 15 Z M 17 15 "/>
</svg>
